heart-minus-outline.svg

<svg fill="currentColor" viewBox="0 0 24 24"><path d="m12.67 20.74-.67.61-1.45-1.32C5.4 15.36 2 12.27 2 8.5 2 5.41 4.42 3 7.5 3c1.74 0 3.41.81 4.5 2.08C13.09 3.81 14.76 3 16.5 3 19.58 3 22 5.41 22 8.5c0 1.43-.5 2.76-1.38 4.11-.62-.3-1.31-.5-2.03-.57C19.5 10.8 20 9.65 20 8.5c0-2-1.5-3.5-3.5-3.5-1.54 0-3.04 1-3.57 2.36h-1.86C10.54 6 9.04 5 7.5 5 5.5 5 4 6.5 4 8.5c0 2.89 3.14 5.74 7.89 10.05l.11.1.04-.04c.08.76.3 1.48.63 2.13M14 17v2h8v-2z"/></svg>

<svg  viewBox="0 0 24 24" fill="currentColor"><path  d="M12.67 20.74L12 21.35L10.55 20.03C5.4 15.36 2 12.27 2 8.5C2 5.41 4.42 3 7.5 3C9.24 3 10.91 3.81 12 5.08C13.09 3.81 14.76 3 16.5 3C19.58 3 22 5.41 22 8.5C22 9.93 21.5 11.26 20.62 12.61C20 12.31 19.31 12.11 18.59 12.04C19.5 10.8 20 9.65 20 8.5C20 6.5 18.5 5 16.5 5C14.96 5 13.46 6 12.93 7.36H11.07C10.54 6 9.04 5 7.5 5C5.5 5 4 6.5 4 8.5C4 11.39 7.14 14.24 11.89 18.55L12 18.65L12.04 18.61C12.12 19.37 12.34 20.09 12.67 20.74M14 17V19H22V17H14Z"/></svg>
